X:291
T:Music in the Glen
M:4/4
R:Reel
K:A
A2cA F2ED|CEAc BABc|d2fd c2ec|dBcA BAFG|
ABcA F2ED|CEAc BABc|defg agaf|1 edcB A2E2:|2 edcB A3B||
c2ec fcec|c2ec dBGB|c2ec fc(3efg)|aecA BAGA|
c2ec fc(3efg)|a2ga bgeg|afge fdec|1 dBcA BAGA:|2 dBcA BAGA||
% Written by ABC2Win  2.2.124 BETA on 10/10/2006
